X:932
T:Auld Man's Mare's Dead, The
S:Books - can't remember
Z:Nigel Gatherer
M:4/4
L:1/8
K:Em
zF | E2 E2 E2 d>B | A<FE>D D>EF>D | G>FG>A B<GA>B |
d>BA>F E2 :: B>d | e2 e<B e2 e<B | d2 d<f D>EF<D |
e>gB>e B2 A<d | B>Ad>F E2 :|]
<end>
<start>
